Images/1.svg

<svg width="46" height="182" viewBox="0 0 46 182" fill="none" xmlns="http://www.w3.org/2000/svg">
<g filter="url(#filter0_g_1556_383)">
<path d="M23.5167 174.295C19.1867 125.115 21.3267 77.7146 27.8867 28.4946L11.9467 48.4846C10.9167 49.7746 6.48675 49.4746 5.28675 48.2646C4.08675 47.0546 3.45675 43.5446 4.60675 42.0346L32.5067 5.67456C33.4567 4.44456 36.6267 3.67456 38.0067 4.13456C39.8467 4.74456 41.5267 7.54456 41.0667 10.1646C31.4767 64.1346 28.8967 118.255 33.2167 172.955C33.4167 175.475 30.8667 177.395 29.0367 177.755C27.5167 178.055 23.7567 177.155 23.5067 174.305L23.5167 174.295Z" fill="#0B3048"/>
</g>
<defs>
<filter id="filter0_g_1556_383" x="0" y="0" width="45.1436" height="181.81" filterUnits="userSpaceOnUse" color-interpolation-filters="sRGB">
<feFlood flood-opacity="0" result="BackgroundImageFix"/>
<feBlend mode="normal" in="SourceGraphic" in2="BackgroundImageFix" result="shape"/>
<feTurbulence type="fractalNoise" baseFrequency="0.031746033579111099 0.031746033579111099" numOctaves="3" seed="640" />
<feDisplacementMap in="shape" scale="8" xChannelSelector="R" yChannelSelector="G" result="displacedImage" width="100%" height="100%" />
<feMerge result="effect1_texture_1556_383">
<feMergeNode in="displacedImage"/>
</feMerge>
</filter>
</defs>
</svg>

<svg xmlns="http://www.w3.org/2000/svg" width="46" height="182" fill="none" viewBox="0 0 46 182"><g filter="url(#a)"><path fill="#0b3048" d="M23.52 174.3c-4.33-49.19-2.2-96.59 4.37-145.8L11.95 48.47c-1.03 1.3-5.46 1-6.66-.22-1.2-1.2-1.83-4.72-.68-6.23L32.5 5.67c.95-1.23 4.12-2 5.5-1.54 1.84.61 3.52 3.41 3.06 6.03a638 638 0 0 0-7.85 162.8c.2 2.51-2.35 4.44-4.18 4.8-1.52.3-5.28-.6-5.53-3.45z"/></g><defs><filter id="a" width="45.14" height="181.81" x="0" y="0" color-interpolation-filters="sRGB" filterUnits="userSpaceOnUse"><feFlood flood-opacity="0" result="BackgroundImageFix"/><feBlend in="SourceGraphic" in2="BackgroundImageFix" result="shape"/><feTurbulence baseFrequency="0.031746033579111099 0.031746033579111099" numOctaves="3" seed="640" type="fractalNoise"/><feDisplacementMap width="100%" height="100%" in="shape" result="displacedImage" scale="8" xChannelSelector="R" yChannelSelector="G"/><feMerge result="effect1_texture_1556_383"><feMergeNode in="displacedImage"/></feMerge></filter></defs></svg>
